markup/src/img/grid-img-06.svg

<svg width="92" height="100" viewBox="0 0 92 100" fill="none" xmlns="http://www.w3.org/2000/svg">
<path d="M83.0156 89.2188C84.0075 89.2188 84.8125 90.0238 84.8125 91.0156C84.8125 92.0075 84.0075 92.8125 83.0156 92.8125C82.0237 92.8125 81.2188 92.0075 81.2188 91.0156C81.2188 90.0238 82.0237 89.2188 83.0156 89.2188Z" fill="#40AC6C"/>
<path d="M61.4531 82.0313C62.445 82.0313 63.25 82.8363 63.25 83.8281C63.25 84.82 62.445 85.625 61.4531 85.625C60.4612 85.625 59.6562 84.82 59.6562 83.8281C59.6562 82.8363 60.4612 82.0313 61.4531 82.0313Z" fill="#40AC6C"/>
<path d="M38 10.3385V12.7812" stroke="#40AC6C" stroke-width="2.5" stroke-miterlimit="10" stroke-linecap="round" stroke-linejoin="round"/>
<path d="M38 10.3386H40.4427C41.7923 10.3386 42.8854 9.24551 42.8854 7.89591C42.8854 6.54632 41.7923 5.45321 40.4427 5.45321H38V10.3386Z" stroke="#40AC6C" stroke-width="2.5" stroke-miterlimit="10" stroke-linecap="round" stroke-linejoin="round"/>
<path d="M50.0728 2V12.7812" stroke="#40AC6C" stroke-width="2.5" stroke-miterlimit="10" stroke-linecap="round" stroke-linejoin="round"/>
<path d="M57.2603 2V12.7812" stroke="#40AC6C" stroke-width="2.5" stroke-miterlimit="10" stroke-linecap="round" stroke-linejoin="round"/>
<path d="M50.0728 5.59375H57.2603" stroke="#40AC6C" stroke-width="2.5" stroke-miterlimit="10" stroke-linecap="round" stroke-linejoin="round"/>
<path d="M40.8555 32.5805C43.0167 31.2624 45.558 30.5 48.275 30.5C54.4785 30.5 59.7581 34.4663 61.7151 40H71.55C69.3484 29.1605 59.7652 21 48.275 21C42.9289 21 37.996 22.767 34.025 25.75C29.465 29.1748 26.178 34.205 25 40H34.8349C35.9345 36.8911 38.0839 34.2763 40.8555 32.5805Z" stroke="#40AC6C" stroke-width="2.5" stroke-miterlimit="10" stroke-linecap="round" stroke-linejoin="round"/>
<path d="M48.2749 40L34.0249 25.75" stroke="#40AC6C" stroke-width="2.5" stroke-miterlimit="10" stroke-linecap="round" stroke-linejoin="round"/>
<path d="M75.8281 60.1094C83.7667 60.1094 90.2031 53.673 90.2031 45.7344V42.1406C82.2645 42.1406 75.8281 48.577 75.8281 56.5156V60.1094Z" stroke="#40AC6C" stroke-width="2.5" stroke-miterlimit="10" stroke-linecap="round" stroke-linejoin="round"/>
<path d="M75.8281 60.1095C73.5263 62.4113 72.2344 65.5307 72.2344 68.7848V70.2744" stroke="#40AC6C" stroke-width="2.5" stroke-miterlimit="10" stroke-linecap="round" stroke-linejoin="round"/>
<path d="M65.0469 63.7031H68.6406C68.6406 57.7483 63.8142 52.9219 57.8594 52.9219H54.2656C54.2656 58.8767 59.092 63.7031 65.0469 63.7031Z" stroke="#40AC6C" stroke-width="2.5" stroke-miterlimit="10" stroke-linecap="round" stroke-linejoin="round"/>
<path d="M68.6406 63.7031L70.1284 65.1909C71.4779 66.5404 72.2344 68.3678 72.2344 70.2743V83.8281" stroke="#40AC6C" stroke-width="2.5" stroke-miterlimit="10" stroke-linecap="round" stroke-linejoin="round"/>
<path d="M68.6406 91.0156L72.2344 83.8281L75.8281 91.0156" stroke="#40AC6C" stroke-width="2.5" stroke-miterlimit="10" stroke-linecap="round" stroke-linejoin="round"/>
<path d="M29 68C35.0748 68 40 62.9852 40 56.8V54C33.9253 54 29 59.0148 29 65.2V68Z" stroke="#40AC6C" stroke-width="2.5" stroke-miterlimit="10" stroke-linecap="round" stroke-linejoin="round"/>
<path d="M29.3306 67.6087C27.5874 69.352 26.6089 71.7144 26.6089 74.179V75.3071" stroke="#40AC6C" stroke-width="2.5" stroke-miterlimit="10" stroke-linecap="round" stroke-linejoin="round"/>
<path d="M21.1652 70.3303H23.8869C23.8869 65.8204 20.2317 62.1651 15.7217 62.1651H13C13 66.675 16.6553 70.3303 21.1652 70.3303Z" stroke="#40AC6C" stroke-width="2.5" stroke-miterlimit="10" stroke-linecap="round" stroke-linejoin="round"/>
<path d="M23.8867 70.3305L25.0135 71.4573C26.0355 72.4793 26.6085 73.8634 26.6085 75.3072V85.5723" stroke="#40AC6C" stroke-width="2.5" stroke-miterlimit="10" stroke-linecap="round" stroke-linejoin="round"/>
<path d="M23.8867 91.0156L26.6085 85.5722L29.3302 91.0156" stroke="#40AC6C" stroke-width="2.5" stroke-miterlimit="10" stroke-linecap="round" stroke-linejoin="round"/>
<path d="M12.5781 83.8281H16.1719" stroke="#40AC6C" stroke-width="2.5" stroke-miterlimit="10" stroke-linecap="round" stroke-linejoin="round"/>
<path d="M1.79688 91.0156H12.5781" stroke="#40AC6C" stroke-width="2.5" stroke-miterlimit="10" stroke-linecap="round" stroke-linejoin="round"/>
<path d="M41.3281 83.8281H54.2656" stroke="#40AC6C" stroke-width="2.5" stroke-miterlimit="10" stroke-linecap="round" stroke-linejoin="round"/>
<path d="M37.7344 91.0156H46" stroke="#40AC6C" stroke-width="2.5" stroke-miterlimit="10" stroke-linecap="round" stroke-linejoin="round"/>
<path d="M79.4219 83.8281H90.2031" stroke="#40AC6C" stroke-width="2.5" stroke-miterlimit="10" stroke-linecap="round" stroke-linejoin="round"/>
<path d="M53.1875 91.0156H57.8594" stroke="#40AC6C" stroke-width="2.5" stroke-miterlimit="10" stroke-linecap="round" stroke-linejoin="round"/>
<path d="M37.9141 98.2031H1.79688V76.6406H90.2031V98.2031H54.0859" stroke="#40AC6C" stroke-width="2.5" stroke-miterlimit="10" stroke-linecap="round" stroke-linejoin="round"/>
<path d="M44.2031 98.2031C44.2031 99.1955 45.0078 100 46 100C46.9922 100 47.7969 99.1955 47.7969 98.2031C47.7969 97.2107 46.9922 96.4063 46 96.4063C45.0078 96.4063 44.2031 97.2107 44.2031 98.2031Z" fill="#40AC6C"/>
</svg>

<svg width="92" height="100" fill="none" xmlns="http://www.w3.org/2000/svg"><path d="M83.016 89.219a1.798 1.798 0 1 1-.002 3.595 1.798 1.798 0 0 1 .002-3.595zm-21.563-7.188a1.798 1.798 0 1 1-.001 3.595 1.798 1.798 0 0 1 .001-3.595z" fill="#40AC6C"/><path d="M38 10.338v2.443m0-2.442h2.443a2.442 2.442 0 1 0 0-4.886H38v4.886zM50.073 2v10.781M57.26 2v10.781m-7.187-7.187h7.187M40.855 32.58a14.208 14.208 0 0 1 7.42-2.08c6.203 0 11.483 3.966 13.44 9.5h9.835c-2.202-10.84-11.785-19-23.275-19a23.641 23.641 0 0 0-14.25 4.75A23.76 23.76 0 0 0 25 40h9.835a14.314 14.314 0 0 1 6.02-7.42zm7.42 7.42l-14.25-14.25m41.803 34.36c7.939 0 14.375-6.437 14.375-14.376v-3.593c-7.939 0-14.375 6.436-14.375 14.375v3.593zm0 0a12.266 12.266 0 0 0-3.594 8.675v1.49m-7.187-6.572h3.594c0-5.955-4.827-10.781-10.782-10.781h-3.593c0 5.955 4.826 10.781 10.78 10.781z" stroke="#40AC6C" stroke-width="2.5" stroke-miterlimit="10" stroke-linecap="round" stroke-linejoin="round"/><path d="M68.64 63.703l1.488 1.488a7.186 7.186 0 0 1 2.106 5.083v13.554m-3.594 7.188l3.594-7.188 3.594 7.188M29 68c6.075 0 11-5.015 11-11.2V54c-6.075 0-11 5.015-11 11.2V68z" stroke="#40AC6C" stroke-width="2.5" stroke-miterlimit="10" stroke-linecap="round" stroke-linejoin="round"/><path d="M29.33 67.609a9.29 9.29 0 0 0-2.721 6.57v1.128m-5.444-4.977h2.722a8.165 8.165 0 0 0-8.165-8.165H13a8.165 8.165 0 0 0 8.165 8.165z" stroke="#40AC6C" stroke-width="2.5" stroke-miterlimit="10" stroke-linecap="round" stroke-linejoin="round"/><path d="M23.887 70.33l1.127 1.127a5.443 5.443 0 0 1 1.595 3.85v10.265m-2.722 5.444l2.721-5.444 2.722 5.444m-16.752-7.188h3.594M1.797 91.016h10.781m28.75-7.188h12.938m-16.532 7.188H46m33.422-7.188h10.781m-37.015 7.188h4.671" stroke="#40AC6C" stroke-width="2.5" stroke-miterlimit="10" stroke-linecap="round" stroke-linejoin="round"/><path d="M37.914 98.203H1.797V76.641h88.406v21.562H54.086" stroke="#40AC6C" stroke-width="2.5" stroke-miterlimit="10" stroke-linecap="round" stroke-linejoin="round"/><path d="M44.203 98.203a1.797 1.797 0 1 0 3.594 0 1.797 1.797 0 0 0-3.594 0z" fill="#40AC6C"/></svg>
